__todo__/matter-icon.svg

<svg height="251" preserveAspectRatio="xMidYMid" viewBox="0 0 256 251" width="256" xmlns="http://www.w3.org/2000/svg"><path d="m76.0197455 64.2869435c10.7687668 8.736315 23.5700558 14.6105513 37.2157055 17.0774875v-72.80829677l14.828314-8.55613423 14.81672 8.55613423v72.80829677c13.648367-2.4694152 26.452819-8.3432731 37.2273-17.0774875l26.92052 15.5703093c-43.782304 43.3161212-114.2743059 43.3161212-158.0566099 0zm32.7173585 185.9278115c15.613384-59.591922-19.6652805-120.644386-79.0920698-136.874961v31.152213c12.9539098 4.956795 24.4467092 13.103842 33.4129795 23.685883l-63.0580137 36.404149v17.123862l14.8283139 8.50976 63.04642-36.404149c4.6861504 13.053292 5.9981953 27.079012 3.81432 40.774965zm117.67583-136.874961c-59.394512 16.266505-94.634051 77.304944-79.022508 136.874961l26.978488-15.581903c-2.178828-13.696117-.866901-27.720577 3.81432-40.774965l63.000046 36.357774 14.81672-8.556135v-17.077487l-63.058014-36.404149c8.968657-10.579439 20.460735-18.725975 33.41298-23.685883z" fill="#231f20"/></svg>

<?xml version="1.0" encoding="UTF-8"?>
<svg width="256px" height="251px" viewBox="0 0 256 251" version="1.1" xmlns="http://www.w3.org/2000/svg" xmlns:xlink="http://www.w3.org/1999/xlink" preserveAspectRatio="xMidYMid">
    <title>Matter</title>
    <g>
        <path d="M76.0197455,64.2869435 C86.7885123,73.0232585 99.5898013,78.8974948 113.235451,81.364431 L113.235451,8.55613423 L128.063765,1.42108547e-14 L142.880485,8.55613423 L142.880485,81.364431 C156.528852,78.8950158 169.333304,73.0211579 180.107785,64.2869435 L207.028305,79.8572528 C163.246001,123.173374 92.7539991,123.173374 48.9716951,79.8572528 L76.0197455,64.2869435 Z M108.737104,250.214755 C124.350488,190.622833 89.0718235,129.570369 29.6450342,113.339794 L29.6450342,144.492007 C42.598944,149.448802 54.0917434,157.595849 63.0580137,168.17789 L0,204.582039 L0,221.705901 L14.8283139,230.215661 L77.8747339,193.811512 C82.5608843,206.864804 83.8729292,220.890524 81.6890539,234.586477 L108.737104,250.214755 Z M226.412934,113.339794 C167.018422,129.606299 131.778883,190.644738 147.390426,250.214755 L174.368914,234.632852 C172.190086,220.936735 173.502013,206.912275 178.183234,193.857887 L241.18328,230.215661 L256,221.659526 L256,204.582039 L192.941986,168.17789 C201.910643,157.598451 213.402721,149.451915 226.354966,144.492007 L226.412934,113.339794 Z" fill="#231F20"></path>
    </g>
</svg>
